X:078
T:Lads Of Dunce,The TS.078
T:Ladds Dance,The, aka TS.078
M:6/8
L:1/8
Q:3/8=120
S:Thomas Sands’ MS,1810,Lincolnshire
R:jig
O:England;Lincolnshire
Z:vmp.Ruairidh Greig, 2011
K:D
B|AFD DFD|DFD B2A|Bcd AFD|EEEE2B|
AFD DFD|DFDB2A|Bcd edc|d3d2:|
|:g|fefd2e|fgaB2A|Bcd AFD|EEEE2g|
fefd2e|fga B2A|Bcd edc|d3d2:|

